X: 471
T: Polska efter Olof Olsson
S: efter Olof Olsson
B: EÖ, nr 434
R: Polska
O: Hovra, Hälsingland
Z: Nils L
M: 3/4
L: 1/16
K: D
.d.c.d.A FDFD ECEC | DCDF A2d2 f2a2 | b2bg a2af gfge | d2f2 edcB A4 |
dcdA FDFD ECEC | DCDF A2d2 f2a2 | b2bg a2af gfge | cdec d6z2 ::
dfaf dfaf dfaf | Acec Acec Acec | EGBG EGBG EGBG | DFAF DFAF DFAF |
D2>F2 A2d2 f2a2 | b2bg a2af gfge | dcec d8 :|
(:musicend:)

(:music:)
